public/images/logo-dms.svg

<?xml version="1.0" encoding="UTF-8" standalone="no"?>
<svg
   xmlns:dc="http://purl.org/dc/elements/1.1/"
   xmlns:cc="http://creativecommons.org/ns#"
   xmlns:rdf="http://www.w3.org/1999/02/22-rdf-syntax-ns#"
   xmlns:svg="http://www.w3.org/2000/svg"
   xmlns="http://www.w3.org/2000/svg"
   xmlns:sodipodi="http://sodipodi.sourceforge.net/DTD/sodipodi-0.dtd"
   xmlns:inkscape="http://www.inkscape.org/namespaces/inkscape"
   width="240"
   height="120"
   viewBox="0 0 63.499997 31.750002"
   version="1.1"
   id="svg7"
   sodipodi:docname="logo-dms.svg"
   inkscape:version="1.0.2-2 (e86c870879, 2021-01-15)">
  <metadata
     id="metadata13">
    <rdf:RDF>
      <cc:Work
         rdf:about="">
        <dc:format>image/svg+xml</dc:format>
        <dc:type
           rdf:resource="http://purl.org/dc/dcmitype/StillImage" />
        <dc:title></dc:title>
      </cc:Work>
    </rdf:RDF>
  </metadata>
  <defs
     id="defs11" />
  <sodipodi:namedview
     pagecolor="#ffffff"
     bordercolor="#666666"
     borderopacity="1"
     objecttolerance="10"
     gridtolerance="10"
     guidetolerance="10"
     inkscape:pageopacity="0"
     inkscape:pageshadow="2"
     inkscape:window-width="1280"
     inkscape:window-height="962"
     id="namedview9"
     showgrid="false"
     inkscape:zoom="0.87890625"
     inkscape:cx="167.70421"
     inkscape:cy="107.14628"
     inkscape:window-x="-8"
     inkscape:window-y="-8"
     inkscape:window-maximized="1"
     inkscape:current-layer="svg7" />
  <g
     id="g843"
     transform="matrix(2.9676421,0,0,2.9676421,0.34245509,0.17122759)">
    <path
       style="fill:#d68100;fill-opacity:1;stroke:none;stroke-width:0.206668px;stroke-linecap:butt;stroke-linejoin:miter;stroke-opacity:1"
       d="m 14.421,5.8682023 v 1.2743832 l 0.145127,5.88e-4 -0.0027,-1.2752865 z"
       id="path3893"
       sodipodi:nodetypes="ccccc" />
    <path
       id="path1511"
       style="fill:#d68100;fill-opacity:1;stroke:none;stroke-width:0.999999px;stroke-linecap:butt;stroke-linejoin:miter;stroke-opacity:1"
       d="M 34.574219,0.88867188 V 2.8066406 l 3.167969,3.1484375 V 4.0390625 Z m 8.65039,0 V 2.8066406 l 3.166016,3.1484375 0.002,-1.9160156 z m 8.650391,0 V 2.8066406 l 2.629568,2.6169815 V 16.609375 h 0.538401 V 4.0390625 Z"
       transform="scale(0.26458333)"
       sodipodi:nodetypes="ccccccccccccccccc" />
    <path
       id="rect1463"
       style="fill:#ff9900;fill-opacity:1;stroke:none;stroke-width:2.36323;stroke-linecap:round;stroke-linejoin:round"
       d="M 28.125,0.88867188 V 32.658203 h -26 v 6.453125 h 75.75 v -6.453125 h -26 V 0.88867188 H 45.423828 V 32.658203 H 43.224609 V 0.88867188 H 36.773438 V 32.658203 H 34.576172 V 0.88867188 Z M 31.294922,27.65625 a 1.4556519,1.4556519 0 0 1 0.002,0 1.4556519,1.4556519 0 0 1 0.05273,0 1.4556519,1.4556519 0 0 1 1.457032,1.455078 1.4556519,1.4556519 0 0 1 -1.457032,1.455078 1.4556519,1.4556519 0 0 1 -1.455078,-1.455078 1.4556519,1.4556519 0 0 1 1.400391,-1.455078 z m 8.65039,0 a 1.4556519,1.4556519 0 0 1 0.05469,0 1.4556519,1.4556519 0 0 1 1.455078,1.455078 A 1.4556519,1.4556519 0 0 1 40,30.566406 1.4556519,1.4556519 0 0 1 38.544922,29.111328 1.4556519,1.4556519 0 0 1 39.945312,27.65625 Z m 8.648438,0 a 1.4556519,1.4556519 0 0 1 0.002,0 1.4556519,1.4556519 0 0 1 0.05273,0 1.4556519,1.4556519 0 0 1 1.457031,1.455078 1.4556519,1.4556519 0 0 1 -1.457031,1.455078 1.4556519,1.4556519 0 0 1 -1.455079,-1.455078 1.4556519,1.4556519 0 0 1 1.400391,-1.455078 z"
       transform="scale(0.26458333)" />
    <path
       id="rect1426"
       style="fill:#490ad1;fill-opacity:1;stroke-width:1.00001;stroke-linecap:round;stroke-linejoin:round"
       d="M 2.125,0.88867188 V 32.673828 h 23.75 V 6.7421875 L 20.019531,0.88867188 Z M 59.480469,2.3789881 c -1.686036,0 -3.042969,1.3569343 -3.042969,3.0429687 v 4.9393712 3.042969 3.042969 h 3.042969 1.40039 v -0.888672 -1.71875 -0.06836 -1.787109 -2.8140514 c 0,-1.7647819 1.040085,-2.5412336 2.384654,-2.5414287 l 5.465197,-7.931e-4 c 1.543442,-2.24e-4 2.386478,0.7345298 2.386478,2.5422218 v 2.8140514 1.787109 0.06836 1.044922 H 75.5625 V 13.404297 10.361328 5.4219568 c 0,-1.6860344 -1.356937,-3.0429687 -3.042969,-3.0429687 z m -50.9042971,4.20109 h 3.7792971 2.091797 1.197265 c 2.093859,0 3.779297,1.6854386 3.779297,3.7792969 v 12.84375 c 0,2.093858 -1.685438,3.779297 -3.779297,3.779297 H 14.447266 12.355469 8.5761719 V 23.203125 10.359375 Z M 54.125,16.611328 v 5.703125 h 17.310547 v 4.650391 H 54.125 v 5.708984 h 23.75 v -16.0625 z"
       transform="scale(0.26458333)"
       sodipodi:nodetypes="ccccccsscccccccccsssscccccccssscccssssccccccccccccccc" />
    <path
       style="fill:#4d4d4d;stroke:none;stroke-width:0.264583px;stroke-linecap:butt;stroke-linejoin:miter;stroke-opacity:1"
       d="m 5.2967688,0.23526297 0.182191,1.53045453 c 0.6105369,-0.092443 0.9971803,-0.042409 1.3670685,0.018288 z"
       id="path1459"
       sodipodi:nodetypes="cccc" />
  </g>
</svg>

<?xml version="1.0" encoding="UTF-8" standalone="no"?>
<svg xmlns="http://www.w3.org/2000/svg" width="80" height="40" viewBox="0 0 21.166666 10.583334" >
    <path
       style="fill:#d68100;fill-opacity:1;stroke:none;stroke-width:0.206668px;stroke-linecap:butt;stroke-linejoin:miter;stroke-opacity:1"
       d="m 14.421,5.8682023 v 1.2743832 l 0.145127,5.88e-4 -0.0027,-1.2752865 z"
       id="path3893"
       sodipodi:nodetypes="ccccc" />
    <path
       id="path1511"
       style="fill:#d68100;fill-opacity:1;stroke:none;stroke-width:0.999999px;stroke-linecap:butt;stroke-linejoin:miter;stroke-opacity:1"
       d="M 34.574219,0.88867188 V 2.8066406 l 3.167969,3.1484375 V 4.0390625 Z m 8.65039,0 V 2.8066406 l 3.166016,3.1484375 0.002,-1.9160156 z m 8.650391,0 V 2.8066406 l 2.629568,2.6169815 V 16.609375 h 0.538401 V 4.0390625 Z"
       transform="scale(0.26458333)"
       sodipodi:nodetypes="ccccccccccccccccc" />
    <path
       id="rect1463"
       style="fill:#ff9900;fill-opacity:1;stroke:none;stroke-width:2.36323;stroke-linecap:round;stroke-linejoin:round"
       d="M 28.125 0.88867188 L 28.125 32.658203 L 2.125 32.658203 L 2.125 39.111328 L 77.875 39.111328 L 77.875 32.658203 L 51.875 32.658203 L 51.875 0.88867188 L 45.423828 0.88867188 L 45.423828 32.658203 L 43.224609 32.658203 L 43.224609 0.88867188 L 36.773438 0.88867188 L 36.773438 32.658203 L 34.576172 32.658203 L 34.576172 0.88867188 L 28.125 0.88867188 z M 31.294922 27.65625 A 1.4556519 1.4556519 0 0 1 31.296875 27.65625 A 1.4556519 1.4556519 0 0 1 31.349609 27.65625 A 1.4556519 1.4556519 0 0 1 32.806641 29.111328 A 1.4556519 1.4556519 0 0 1 31.349609 30.566406 A 1.4556519 1.4556519 0 0 1 29.894531 29.111328 A 1.4556519 1.4556519 0 0 1 31.294922 27.65625 z M 39.945312 27.65625 A 1.4556519 1.4556519 0 0 1 40 27.65625 A 1.4556519 1.4556519 0 0 1 41.455078 29.111328 A 1.4556519 1.4556519 0 0 1 40 30.566406 A 1.4556519 1.4556519 0 0 1 38.544922 29.111328 A 1.4556519 1.4556519 0 0 1 39.945312 27.65625 z M 48.59375 27.65625 A 1.4556519 1.4556519 0 0 1 48.595703 27.65625 A 1.4556519 1.4556519 0 0 1 48.648438 27.65625 A 1.4556519 1.4556519 0 0 1 50.105469 29.111328 A 1.4556519 1.4556519 0 0 1 48.648438 30.566406 A 1.4556519 1.4556519 0 0 1 47.193359 29.111328 A 1.4556519 1.4556519 0 0 1 48.59375 27.65625 z "
       transform="scale(0.26458333)" />
    <path
       id="rect1426"
       style="fill:#490ad1;fill-opacity:1;stroke-width:1.00001;stroke-linecap:round;stroke-linejoin:round"
       d="M 2.125,0.88867188 V 32.673828 h 23.75 V 6.7421875 L 20.019531,0.88867188 Z M 59.480469,2.3789881 c -1.686036,0 -3.042969,1.3569343 -3.042969,3.0429687 v 4.9393712 3.042969 3.042969 h 3.042969 1.40039 v -0.888672 -1.71875 -0.06836 -1.787109 -2.8140514 c 0,-1.7647819 1.040085,-2.5412336 2.384654,-2.5414287 l 5.465197,-7.931e-4 c 1.543442,-2.24e-4 2.386478,0.7345298 2.386478,2.5422218 v 2.8140514 1.787109 0.06836 1.044922 H 75.5625 V 13.404297 10.361328 5.4219568 c 0,-1.6860344 -1.356937,-3.0429687 -3.042969,-3.0429687 z m -50.9042971,4.20109 h 3.7792971 2.091797 1.197265 c 2.093859,0 3.779297,1.6854386 3.779297,3.7792969 v 12.84375 c 0,2.093858 -1.685438,3.779297 -3.779297,3.779297 H 14.447266 12.355469 8.5761719 V 23.203125 10.359375 Z M 54.125,16.611328 v 5.703125 h 17.310547 v 4.650391 H 54.125 v 5.708984 h 23.75 v -16.0625 z"
       transform="scale(0.26458333)"
       sodipodi:nodetypes="ccccccsscccccccccsssscccccccssscccssssccccccccccccccc" />
    <path
       style="fill:#4d4d4d;stroke:none;stroke-width:0.264583px;stroke-linecap:butt;stroke-linejoin:miter;stroke-opacity:1"
       d="m 5.2967688,0.23526297 0.182191,1.53045453 c 0.6105369,-0.092443 0.9971803,-0.042409 1.3670685,0.018288 z"
       id="path1459"
       sodipodi:nodetypes="cccc" />
  
</svg>
